X: 186
T:Pasucáis de Peruyes
M:2/4
L:1/16
Q:150
C:Trad
R:Pasucáis
B:Metodo de Gaita. Dayures
K:C
G4 C2 ED |: C2GF E2G2 | c2G2 F2 AG |
F2FE D2DC | B,4 C2FE | C2GF E2G2 | c2G2 F2AG |
F2FE D2CB, |1 C4 C2ED :|2 C4 G2GF |: E2ED C2D2 |
E2E2 G2GF | E2ED C2D2 |1 C4 G2GF :|2 C8 ||

